Sources/FrostedUI/Resources/Icons.xcassets/dollarSign24.imageset/dollar-sign-24.svg

<svg width="24" height="24" viewBox="0 0 24 24" fill="none" xmlns="http://www.w3.org/2000/svg" data-fui-icon="true">
  <path
    d="M18.2422 14.25C18.3497 14.25 18.4498 14.3071 18.4992 14.4026C18.829 15.0395 19.0029 15.7861 19.0029 16.6543C19.0026 18.9728 16.9747 21.6118 13.0468 22.0063C12.8903 22.022 12.7676 22.1522 12.7676 22.3095V23.248C12.7674 23.662 12.4315 23.9978 12.0176 23.998C11.6036 23.9978 11.2677 23.662 11.2676 23.248V22.3101C11.2676 22.1525 11.1452 22.0223 10.9883 22.0069C9.14446 21.8267 7.81414 21.1683 6.87305 20.3438C5.77943 19.3855 5.26359 18.253 5.03613 17.5439C4.90971 17.1497 5.1265 16.7273 5.52051 16.6006C5.91484 16.4743 6.33741 16.6916 6.46387 17.0859C6.63626 17.6233 7.03281 18.488 7.8623 19.2148C8.5248 19.7953 9.4997 20.3193 10.9435 20.4954C11.1176 20.5166 11.2676 20.3781 11.2676 20.2028V14.55C11.2676 14.3843 11.4019 14.25 11.5676 14.25H12.4676C12.6333 14.25 12.7676 14.3843 12.7676 14.55V20.2016C12.7676 20.377 12.9178 20.5155 13.0919 20.4941C16.244 20.1072 17.5026 18.0321 17.5029 16.6543C17.5029 15.8976 17.3352 15.347 17.0781 14.9287C17.0663 14.9094 17.0541 14.8903 17.0417 14.8713C16.8872 14.6349 17.0365 14.25 17.319 14.25H18.2422ZM12.0176 0C12.4316 0.000197845 12.7676 0.335909 12.7676 0.75V1.68407C12.7676 1.84205 12.8916 1.97258 13.0489 1.98729C17.1024 2.36624 18.6829 4.95855 18.9873 6.41504C19.0718 6.82023 18.8113 7.21782 18.4062 7.30273C18.001 7.3873 17.6034 7.12689 17.5186 6.72168C17.3443 5.88877 16.3114 3.86897 13.0903 3.49779C12.9166 3.47778 12.7676 3.6161 12.7676 3.79091V10.95C12.7676 11.1157 12.9019 11.25 13.0676 11.25H23.25C23.664 11.2502 24 11.5859 24 12C24 12.3884 23.7044 12.7078 23.3262 12.7461L23.25 12.75H0.75C0.335955 12.7498 -2.40789e-08 12.4141 0 12C1.12383e-06 11.5859 0.335956 11.2502 0.75 11.25H6.05715C6.35725 11.25 6.49421 10.8233 6.2812 10.6119C6.0563 10.3887 5.85351 10.1381 5.67969 9.85547C5.25506 9.16484 5.03232 8.33309 5.03223 7.34473C5.03223 5.02631 7.06268 2.3868 10.9884 1.9909C11.145 1.97512 11.2676 1.84496 11.2676 1.68764V0.75C11.2676 0.335913 11.6035 0.000205636 12.0176 0ZM11.2676 3.79664C11.2676 3.62116 11.1173 3.48261 10.9432 3.50408C7.7924 3.89243 6.53223 5.96801 6.53223 7.34473C6.53232 8.10108 6.69999 8.65111 6.95703 9.06934C7.21583 9.49014 7.5966 9.82784 8.09766 10.1084C8.85732 10.5336 9.82263 10.7922 10.9097 11.0175C11.0948 11.0559 11.2676 10.9138 11.2676 10.7248V3.79664Z"
    fill="currentColor"
  />
</svg>

<svg xmlns="http://www.w3.org/2000/svg" width="24" height="24" fill="none" data-fui-icon="true" viewBox="0 0 24 24"><path fill="currentColor" d="M18.242 14.25c.108 0 .208.057.257.153.33.636.504 1.383.504 2.251 0 2.319-2.028 4.958-5.956 5.352a.31.31 0 0 0-.28.303v.939a.75.75 0 0 1-1.5 0v-.938a.307.307 0 0 0-.279-.303c-1.844-.18-3.174-.839-4.115-1.663a6.33 6.33 0 0 1-1.837-2.8.75.75 0 1 1 1.428-.458 4.83 4.83 0 0 0 1.398 2.129c.663.58 1.638 1.104 3.082 1.28a.29.29 0 0 0 .324-.292V14.55a.3.3 0 0 1 .3-.3h.9a.3.3 0 0 1 .3.3v5.652c0 .175.15.313.324.292 3.152-.387 4.41-2.462 4.41-3.84 0-.756-.167-1.307-.424-1.725l-.036-.058c-.155-.236-.006-.621.277-.621zM12.018 0a.75.75 0 0 1 .75.75v.934c0 .158.124.289.28.303 4.054.38 5.635 2.972 5.94 4.428a.751.751 0 0 1-1.47.307c-.174-.833-1.207-2.853-4.428-3.224a.292.292 0 0 0-.322.293v7.159a.3.3 0 0 0 .3.3H23.25a.75.75 0 0 1 .076 1.496l-.076.004H.75a.75.75 0 0 1 0-1.5h5.307c.3 0 .437-.427.224-.638a4 4 0 0 1-.601-.757c-.425-.69-.648-1.522-.648-2.51 0-2.319 2.03-4.958 5.956-5.354a.31.31 0 0 0 .28-.303V.75a.75.75 0 0 1 .75-.75m-.75 3.797a.29.29 0 0 0-.325-.293c-3.15.388-4.41 2.464-4.41 3.84 0 .757.167 1.307.424 1.725.259.421.64.759 1.14 1.04.76.425 1.726.683 2.813.909a.298.298 0 0 0 .358-.293z"/></svg>
